X:138
T: Horizonto
R:jig 48
M: 6/8
L: 1/8
K:Dmin
ABA GAF|GEF DEC|A,2A, DEF|E2E CDE|
F3 FGF|EDE CDE|F2D EDC|A,=B,^C D3:|
B,2D DEF|B,DB, DEF|A,2D DEF|A,DE FED|
B,2D DEF|B,DB, DEF|ABA GAF|GEF DEC|
B,2D DEF|B,DB, DEF|A,2D DEF|A,DE FED|
B,2D DEF|B,2D DEF|=B,2D DEF|=B,2D DEF|
B2A2GF|E3 EFG|A2G2FE|D3 DEF|
G2F2ED|^C3 CDE|F2G2^G2|A3 AGA|
B2c2B2|E3 EFG|A2B2A2|D3 DEF|
G2F2ED|^C3 CDE|F2E2C2|A,=B,^C D3||

